Papirus/16x16/apps/libreoffice-math.svg

<svg xmlns="http://www.w3.org/2000/svg" width="16" height="16" version="1">
 <path d="m14 15.143v-14.286c0-0.47471-0.365-0.857-0.818-0.857h-10.364c-0.4531 2e-8 -0.818 0.38229-0.818 0.85714v14.286c0 0.475 0.3649 0.857 0.8182 0.857h10.364c0.453 0 0.818-0.382 0.818-0.857z" style="fill:#636e73"/>
 <path fill="#f5f5f5" d="m3 1v14h10v-9l-4.5-5zm6.8967 0 3.1033 3.5v-3.5h-3z"/>
 <path d="M 7.5 8.5 L 6.4003906 12.400391 L 5.5 10.5 L 4 10.5 L 4 11 L 5.1992188 11 L 6.5 14 L 8 9 L 10.599609 9 L 10.599609 8.5 L 7.5 8.5 z M 8.1132812 10.625 L 9.3359375 12.232422 L 8 14 L 8.6660156 14 L 9.6640625 12.673828 L 10.667969 14 L 11.332031 14 L 10.025391 12.265625 L 11.267578 10.625 L 10.601562 10.625 L 9.6933594 11.830078 L 8.7792969 10.625 L 8.1132812 10.625 z" style="opacity:0.5"/>
</svg>

<svg xmlns="http://www.w3.org/2000/svg" width="16" height="16" version="1">
 <path fill="#4d4d4d" d="m14 15.143v-14.286c0-0.47471-0.365-0.857-0.818-0.857h-10.364c-0.4531 2e-8 -0.818 0.38229-0.818 0.85714v14.286c0 0.475 0.3649 0.857 0.8182 0.857h10.364c0.453 0 0.818-0.382 0.818-0.857z"/>
 <path fill="#f5f5f5" d="m3 1v14h10v-9l-4.5-5zm6.8967 0 3.1033 3.5v-3.5h-3z"/>
 <path opacity=".8" d="m7.5 8.5-1.1 3.9-0.9-1.9h-1.5v0.5h1.2l1.3 3 1.5-5h2.6v-0.5z"/>
 <path opacity=".8" d="m8.1126 10.625 1.2234 1.607-1.336 1.768h0.6656l0.9984-1.326 1.004 1.326h0.6648l-1.3074-1.734 1.2426-1.641h-0.66563l-0.90936 1.2042-0.91416-1.2042z"/>
</svg>
